X:1
T:Marching to the Land Above
T:Marching to the Land Above
T:James Henry Fillmore, Sr.
T:Fronia Smith Savage, 1893
T:Public Domain Courtesy of the Cyber Hymnal™
T:Public Domain Courtesy of the Cyber Hymnal™
T:Public Domain Courtesy of the Cyber Hymnal™
C:James Henry Fillmore, Sr.
Z:Public Domain
Z:Courtesy of the Cyber Hymnal™
%%score 1 ( 2 3 ) 4
L:1/8
Q:1/4=100
M:4/4
K:G
V:1 bass 
V:2 treble 
V:3 treble 
V:4 bass 
V:1
 z2 | x8 | z8 | z6 (3(D,F,)A,"^Bass & Tenor in Unison" | C2 C2 B,2 B,2 | A,>F, D,4 (3D,E,F, | %6
w: |||And * we|sing a glad, tri-|umph- ant song, ~ ~ ~|
w: |||~ * ~|~ ~ ~ ~|~ ~ March- ing a- long,|
 G,2 (3(G,F,)G, A,2 (3A,G,A, | B,6 (3(G,A,)B, | C2 C2 B,2 B,2 | A,>F, D,4 (3D,E,F, | %10
w: ~ ~ * ~ ~ ~ ~ ~|~ ~ * While|our glor- ious cap-|tain leads us on, * *|
w: march- ing * a- long, march- ing a-|long; ~ * ~|~ ~ ~ ~|~ ~ ~ March- ing a-|
 G,2 (3G,F,G, A,2"^riten." (3A,G,A, | B,4 z2 x2 | z2 x6 | z8 | z8 | z8 | z8 | z8 | z8 | z8 | %20
w: ||||||||||
w: long, march- ing a- long, march- ing a-|long;|||||||||
 z6 x2 |] x8 | x8 | x8 | x8 | x6 |] %26
w: ||||||
w: ||||||
V:2
"^Sopranos & Altos in Unison" (3(DE)F | G2 G2 A2 A2 | (3(BA)G d4 (3BAG | A>F D4 (3cBA | %4
w: 1.~We * are|march- ing to a|land * a- bove, Beau- ti- ful|land a- bove, beau- ti- ful|
w: 2.~We * are|march- ing toward the|ci- * ty fair, Beau- ti- ful|ci- ty fair, beau- ti- ful|
w: 3.~We * are|march- ing to the|home * of God, Beau- ti- ful|home of God, beau- ti- ful|
 B>G D4 (3(DE)F | G2 G2 A2 A2 | (3(BA)G d4 d2 | (3^cBA A4 e2 | d6 DD | [DA]2 [DA]2 [DG]2 [DG]2 | %10
w: land a- bove; To * a|land where dwells e-|ter- * nal love, The|beau- ti- ful land a-|bove. ~ ~|~ ~ ~ ~|
w: ci- ty fair; Where * the|an- gel an- thems|fill * the air, The|beau- ti- ful ci- ty|fair. ~ ~|~ ~ ~ ~|
w: home of God; And * our|guide- book is His|ho- * ly Word, The|beau- ti- ful Word of|God. ~ ~|~ ~ ~ ~|
 (F>A) [Dc]4 (3DEF | G2 (3GFG A2 (3AGA | B6 (3:2:2D2 D | [DA]2 [DA]2 [DG]2 [DG]2 | %14
w: ~ * ~ ~ ~ ~|~ ~ ~ ~ ~ ~ ~ ~|~ ~ ~|~ ~ ~ ~|
w: ~ * ~ ~ ~ ~|~ ~ ~ ~ ~ ~ ~ ~|~ ~ ~|~ ~ ~ ~|
w: ~ * ~ ~ ~ ~|~ ~ ~ ~ ~ ~ ~ ~|~ ~ ~|~ ~ ~ ~|
 F>A [Dc]4 (3DEF | G2 (3GFG A2 (3[EA][EG][EGA] | [^DFB]4 (3([=D=d][Dd][Dd]) x2 | %17
w: ~ ~ ~ ~ ~ ~|~ ~ ~ ~ ~ ~ ~ ~|~ ~ * *|
w: ~ ~ ~ ~ ~ ~|~ ~ ~ ~ ~ ~ ~ ~|~ ~ * *|
w: ~ ~ ~ ~ ~ ~|~ ~ ~ ~ ~ ~ ~ ~|~ ~ * *|
"^Refrain" (3(DE)F x6 |"^All voices in unison. Play melody in octaves." G2 G2 A2 A2 | %19
w: We * are|march- ing to a|
w: We * are|march- ing toward the|
w: We * are|march- ing to the|
 (3(BA)G d4 (3BAG | A>F D4 (3cBA |] B>G D4 (3(DE)F | G2 G2 A2 A2 | (3(BA)G d4 (3BAG | %24
w: land * a- bove, Beau- ti- ful|land a- bove, beau- ti- ful|land a- bove; To * a|land where dwells e-|ter- * nal love, Beau- ti- ful|
w: ci- * ty fair, Beau- ti- ful|ci- ty fair, beau- ti- ful|ci- ty fair; Where * the|an- gel an- thems|fill * the air, Beau- ti- ful|
w: home * of God, Beau- ti- ful|home of God, beau- ti- ful|home of God; And * our|guide- book is His|ho- * ly Word, Beau- ti- ful|
 g>B d4 (3(dA)B | G6 |] %26
w: land a- bove, land * a-|bove|
w: ci- ty fair, ci- * ty|fair.|
w: Word of God, Word * of|God.|
V:3
 x2 | x8 | x8 | x8 | x8 | x8 | x8 | x8 | x8 | x8 | D2 x6 | x8 | x8 | x8 | D2 x6 | x8 | x8 | x8 | %18
 x8 | x8 | x8 |] x8 | x8 | x8 | x8 | x6 |] %26
V:4
 z2 | [G,,G,]2 z2 [D,,D,]2 z2 | [G,,G,]2 ([G,B,D]2 [G,B,D]2) [G,B,D]2 | %3
 [D,,D,]2 ([D,A,C]2 [D,A,C]2) [D,A,C]2 | [G,,G,]2 ([G,B,]2 [G,B,]2) [D,A,C]2 | %5
 [G,,G,]2 z2 [D,,D,]2 z2 | [G,,G,]2 ([G,B,D]2 [G,B,D]2) [G,B,D]2 | %7
 [A,,A,]2 ([A,DF]2 [A,^CG]2) [A,C]2 | [D,F,A,D]6 (3(D,F,A,) | [C,C]2 [C,C]2 [C,B,]2 [C,B,]2 | %10
 ([A,,A,]>[F,,F,]) [D,,D,]4 (3([D,,D,][F,,E,][G,,F,]) | %11
 [G,,G,]2 (3([G,,G,][F,,F,][G,,G,]) [A,,A,]2 (3([A,,A,][G,,G,][A,,A,]) | %12
 [B,,B,]6 (3([G,,G,][A,,A,][B,,B,]) | [C,C]2 [C,C]2 [B,,B,]2 [B,,B,]2 | %14
 ([A,,A,]>[F,,F,]) [D,,D,]4 (3[D,,D,][E,,E,][F,,F,] | %15
 [G,,G,]2 (3[G,,G,][F,,F,][G,,G,] [A,,A,]2"^riten." (3[C,,C,][C,,C,][C,,C,] | %16
 [B,,,B,,]4 (3([D,,D,][D,,D,][D,,D,]) x2 | (3([C,C][B,,B,])[A,,A,] x6 | %18
 [G,,G,]2 [G,B,D]2 [D,,D,]2 [D,F,A,D]2 | [G,,G,]2 ([G,B,D]2 [G,B,D]2) [G,B,D]2 | %20
 [D,,D,]2 ([D,F,A,C]2 [D,F,A,C]2) [D,F,A,C]2 |] %21
 [G,,G,]2 ([G,B,]2 [G,B,]2) (3([C,C][B,,B,])[A,,A,] | [G,,G,]2 [G,B,D]2 [D,,D,]2 [D,F,A,C]2 | %23
 [G,,G,]2 ([G,B,D]2 [G,B,D]2) [G,B,D]2 | [E,,E,]2 [D,,D,]2 [D,G,B,]2 [D,F,A,C]2 | %25
 [G,B,]4 [G,,G,]2 |] %26

